img/elem/eau.svg

<?xml version="1.0" encoding="UTF-8" standalone="no"?>
<svg
   xmlns:dc="http://purl.org/dc/elements/1.1/"
   xmlns:cc="http://creativecommons.org/ns#"
   xmlns:rdf="http://www.w3.org/1999/02/22-rdf-syntax-ns#"
   xmlns:svg="http://www.w3.org/2000/svg"
   xmlns="http://www.w3.org/2000/svg"
   xmlns:sodipodi="http://sodipodi.sourceforge.net/DTD/sodipodi-0.dtd"
   xmlns:inkscape="http://www.inkscape.org/namespaces/inkscape"
   version="1.1"
   x="0px"
   y="0px"
   viewBox="0 0 52.688874 46.154999"
   enable-background="new 0 0 52.689 46.155"
   xml:space="preserve"
   id="svg2"
   inkscape:version="0.48.4 r9939"
   width="100%"
   height="100%"
   sodipodi:docname="eau.svg"
   style="fill:#000000"><metadata
     id="metadata16"><rdf:RDF><cc:Work
         rdf:about=""><dc:format>image/svg+xml</dc:format><dc:type
           rdf:resource="http://purl.org/dc/dcmitype/StillImage" /></cc:Work></rdf:RDF></metadata><defs
     id="defs14"><foreignObject
       id="foreignObject6"
       height="1"
       width="1"
       y="0"
       x="0"
       requiredExtensions="http://ns.adobe.com/AdobeIllustrator/10.0/" /></defs><sodipodi:namedview
     pagecolor="#ffffff"
     bordercolor="#666666"
     borderopacity="1"
     objecttolerance="10"
     gridtolerance="10"
     guidetolerance="10"
     inkscape:pageopacity="0"
     inkscape:pageshadow="2"
     inkscape:window-width="1301"
     inkscape:window-height="744"
     id="namedview12"
     showgrid="false"
     fit-margin-top="0"
     fit-margin-left="0"
     fit-margin-right="0"
     fit-margin-bottom="0"
     inkscape:zoom="5.1132056"
     inkscape:cx="-11.596599"
     inkscape:cy="23.077498"
     inkscape:window-x="65"
     inkscape:window-y="24"
     inkscape:window-maximized="1"
     inkscape:current-layer="svg2" /><path
     d="M 1.9618748,0 H 50.726875 l 0,0 c 0.7,0 1.35,0.375 1.698,0.983 l 0,0 c 0.352,0.606 0.352,1.354 0,1.961 l -24.382,42.23 0,0 c -0.352,0.607 -0.999,0.981 -1.699,0.981 l 0,0 c -0.702,0 -1.35,-0.374 -1.699,-0.981 L 0.26287485,2.945 l 0,0 c -0.351,-0.607 -0.35,-1.355 0,-1.961 l 0,0 C 0.61287485,0.375 1.2618748,0 1.9618748,0 v 1.962 l 1.699,-0.981 -1.699,0.981 V 0 l 0,0 z m 3.399,3.926 20.9830002,36.343 20.983,-36.342 -41.9660002,-10e-4 0,0 z"
     id="path10"
     inkscape:connector-curvature="0"
     style="fill:#0aa299;fill-opacity:1" /></svg>

<?xml version="1.0" encoding="UTF-8" standalone="no"?>
<svg
   xmlns:i="http://ns.adobe.com/AdobeIllustrator/10.0/"
   xmlns:dc="http://purl.org/dc/elements/1.1/"
   xmlns:cc="http://creativecommons.org/ns#"
   xmlns:rdf="http://www.w3.org/1999/02/22-rdf-syntax-ns#"
   xmlns:svg="http://www.w3.org/2000/svg"
   xmlns="http://www.w3.org/2000/svg"
   xmlns:sodipodi="http://sodipodi.sourceforge.net/DTD/sodipodi-0.dtd"
   xmlns:inkscape="http://www.inkscape.org/namespaces/inkscape"
   version="1.1"
   x="0px"
   y="0px"
   viewBox="0 0 52.688874 46.154999"
   enable-background="new 0 0 52.689 46.155"
   xml:space="preserve"
   id="svg2"
   inkscape:version="0.48.4 r9939"
   width="100%"
   height="100%"
   sodipodi:docname="eau.svg"
   style="fill:#000000"><metadata
     id="metadata16"><rdf:RDF><cc:Work
         rdf:about=""><dc:format>image/svg+xml</dc:format><dc:type
           rdf:resource="http://purl.org/dc/dcmitype/StillImage" /></cc:Work></rdf:RDF></metadata><defs
     id="defs14" /><sodipodi:namedview
     pagecolor="#ffffff"
     bordercolor="#666666"
     borderopacity="1"
     objecttolerance="10"
     gridtolerance="10"
     guidetolerance="10"
     inkscape:pageopacity="0"
     inkscape:pageshadow="2"
     inkscape:window-width="1301"
     inkscape:window-height="744"
     id="namedview12"
     showgrid="false"
     fit-margin-top="0"
     fit-margin-left="0"
     fit-margin-right="0"
     fit-margin-bottom="0"
     inkscape:zoom="5.1132056"
     inkscape:cx="-11.596599"
     inkscape:cy="23.077498"
     inkscape:window-x="65"
     inkscape:window-y="24"
     inkscape:window-maximized="1"
     inkscape:current-layer="svg2" /><switch
     id="switch4"
     transform="translate(-1.2515103e-4,0)"
     style="fill:#0aa299;fill-opacity:1"><foreignObject
       requiredExtensions="http://ns.adobe.com/AdobeIllustrator/10.0/"
       x="0"
       y="0"
       width="1"
       height="1"
       id="foreignObject6" /><g
       i:extraneous="self"
       id="g8"
       style="fill:#0aa299;fill-opacity:1"><path
         d="m 1.962,0 h 48.765 l 0,0 c 0.7,0 1.35,0.375 1.698,0.983 l 0,0 c 0.352,0.606 0.352,1.354 0,1.961 l -24.382,42.23 0,0 c -0.352,0.607 -0.999,0.981 -1.699,0.981 l 0,0 c -0.702,0 -1.35,-0.374 -1.699,-0.981 L 0.263,2.945 l 0,0 c -0.351,-0.607 -0.35,-1.355 0,-1.961 l 0,0 C 0.613,0.375 1.262,0 1.962,0 V 1.962 L 3.661,0.981 1.962,1.962 V 0 l 0,0 z M 5.361,3.926 26.344,40.269 47.327,3.927 5.361,3.926 l 0,0 z"
         id="path10"
         inkscape:connector-curvature="0"
         style="fill:#0aa299;fill-opacity:1" /></g></switch></svg>
